X: 230
T: No_85_Bird_Dance_Song_(h).krn
N: Derived from No_85_Bird_Dance_Song_(h).krn
%%abc-version 2.0
%%abcx-abcm2ps-target-version 5.9.1 (29 Sep 2008)
%%abc-creator hum2abc beta
%%abcx-conversion-date 2019/03/15 08:38:45
%%humdrum-veritas 3948798015
%%humdrum-veritas-data 2825510026
%%linebreak <none>
%%barnumbers 0
L: 1/8
M: 3/4
K: Eb clef=bass
[K:clef=bass][M:3/4]B,B, B,B,B,2 [I:setbarnb 2]||  
[M:2/4]G,B, B,A, | 
G,2E,2 | 
G,2B,B, | 
G,/A,3/G,2 | 
E,G, G,E, ||  
[M:3/4]E,2B,,2E,2 | 
B,2G,A,G,2 ||  
[M:2/4]E,G, G,E, | 
E,2B,,2 | 
E,2z2 ||  
[M:3/4]E,2G,A,G,2 ||  
[M:2/4]E,G, G,E, | 
E,2B,,2 | 
E,4 :|]  
[M:3/4]B,B, B,B,B,2 ||  
[M:2/4]G,B, B,A, ||  
[M:3/4]G,2E,2G, z | 
B,B, B,B,B,2 ||  
[M:2/4]G,A, G,E, ||  
[M:3/4]E,2B,,2E,2 | 
B,2G,A,G,2 ||  
[M:2/4]E,G, G,E, | 
E,2B,,2 | 
E,2z2 ||  
[M:3/4]E,2G,A,G,2 ||  
[M:2/4]E,G, G,E, | 
E,2B,,2 | 
E,4 ||  
[M:3/4]B,B, B,B,B,2 ||  
[M:2/4]G,B, B,A, ||  
[M:3/4]G,2E,2G, z | 
B,B, G,A,G,2 ||  
[M:2/4]E,G, G,E, ||  
[M:3/4]E,2B,,2E,2 | 
B,2G,A,G,2 ||  
[M:2/4]E,G, G,E, | 
E,2B,,2 | 
E,2z2 ||  
[M:3/4]E,2G,A,G,2 ||  
[M:2/4]E,G, G,E, | 
E,2B,,2 | 
E,4 :|]  



